X:815
T:Fire On the Mountain
S:Forgotten
Z:Nigel Gatherer
M:4/4
L:1/8
K:A
cd | efed cAcd | efae fecd | efed cBAc | BAGB A2 :|
K:D
FG | ABAG FDFG | ABdA BAFG | ABAG FEDF | EDCE D2 :|
K:A
cd | efed cBAc | BAGB A2 ||
 
<end>
<start>
